packages/core/src/svgs/tokens/mono/LORDS.svg

<svg width="24" height="24" viewBox="0 0 24 24" fill="none" xmlns="http://www.w3.org/2000/svg">
<path fill-rule="evenodd" clip-rule="evenodd" d="M2.6 20.75L2 16.9687H2.44374C2.56557 17.5704 2.81936 18.1375 3.18682 18.6293C3.55427 19.121 4.02626 19.5251 4.56874 19.8124H7.73747C8.40622 19.8124 8.94997 19.4 8.94997 18.725V17.5374C6.19999 16.2812 5.73124 13.2499 5.74997 11.8937C5.74997 8.86872 7.40623 7.16248 8.33122 6.69374L6.71249 6.05623V5.74998H8.24997V3.25H9.09379V4.48124C9.09379 5.18749 9.65627 5.74998 10.3625 5.74998C11.0625 5.74998 11.6313 5.18749 11.6313 4.48124V3.25H12.3688V4.48124C12.3688 5.18749 12.9312 5.76248 13.6375 5.76248C14.3375 5.76248 14.9063 5.18749 14.9063 4.48124V3.25H15.7499V5.74998H17.2874V6.05623L15.6687 6.69374C16.5937 7.16248 18.2499 8.86872 18.2499 11.8937C18.2687 13.2499 17.8061 16.2812 15.0499 17.5312V18.7187C15.0499 19.4 15.5937 19.8124 16.2625 19.8124H19.4312C19.9737 19.5251 20.4457 19.121 20.8131 18.6293C21.1806 18.1375 21.4343 17.5704 21.5562 16.9687H22L21.3999 20.75H13.8749V6.99997H10.125V20.75H2.6ZM8.87497 16.0313V7.74998C8.24997 8.15622 6.99998 9.55622 6.99998 11.875C6.99998 14.1999 8.24997 15.6124 8.87497 16.0313ZM15.125 16.0313V7.74998C15.7499 8.15622 17 9.55622 17 11.875C17 14.1999 15.7499 15.6124 15.125 16.0313Z" fill="white"/>
</svg>

<svg xmlns="http://www.w3.org/2000/svg" width="24" height="24" fill="none" viewBox="0 0 24 24">
    <path fill="#fff" fill-rule="evenodd" d="M2.6 20.75 2 16.969h.444a4.15 4.15 0 0 0 2.125 2.843h3.168c.67 0 1.213-.412 1.213-1.087v-1.188c-2.75-1.256-3.219-4.287-3.2-5.643 0-3.025 1.656-4.732 2.581-5.2l-1.619-.638V5.75H8.25v-2.5h.844v1.231c0 .706.562 1.269 1.269 1.269.7 0 1.268-.563 1.268-1.269V3.25h.738v1.231c0 .706.562 1.281 1.268 1.281.7 0 1.27-.575 1.27-1.28V3.25h.843v2.5h1.537v.306l-1.618.638c.925.468 2.58 2.175 2.58 5.2.02 1.356-.443 4.387-3.2 5.637v1.188c0 .681.545 1.093 1.213 1.093h3.17a4.15 4.15 0 0 0 2.124-2.843H22l-.6 3.781h-7.525V7h-3.75v13.75zm6.275-4.719V7.75C8.25 8.156 7 9.556 7 11.875c0 2.325 1.25 3.737 1.875 4.156m6.25 0V7.75C15.75 8.156 17 9.556 17 11.875c0 2.325-1.25 3.737-1.875 4.156" clip-rule="evenodd"/>
</svg>
